X:037
T:Michael Wiggins TS.037
M:6/8
L:1/8
Q:3/8=120
S:Thomas Sands’ MS,1810,Lincolnshire
R:jig
C:Prefixed as ‘No.25′ in MS
O:England;Lincolnshire
Z:vmp.Ruairidh Greig, 2011
K:D
A|f>gf fed|dcBA2A|f>gf fed|geee2A|
f>gf fed|d<>cB AFA|ABA ABc|ed”cr.rest added”zz2:|
|:B/c/|dBA ^Gcd|ecA Ace|fdB ^Ged|cezz2e|
a2ea2e|aec Ace|fdB ^Ged|cA”rests added”zz2:|]

